assets/icons/tw.svg

<?xml version="1.0" encoding="UTF-8"?>
<svg width="24px" height="24px" viewBox="0 0 24 24" version="1.1" xmlns="http://www.w3.org/2000/svg" xmlns:xlink="http://www.w3.org/1999/xlink">
    <title>VW/Icons/tw</title>
    <defs>
        <path d="M11.9999999,-5.00000006e-08 C5.39999997,-5.00000006e-08 -5.00000006e-08,5.39999997 -5.00000006e-08,11.9999999 C-5.00000006e-08,18.6 5.39999997,23.9999999 11.9999999,23.9999999 C18.6,23.9999999 23.9999999,18.6 23.9999999,11.9999999 C23.9999999,5.39999997 18.6,-5.00000006e-08 11.9999999,-5.00000006e-08 Z M18.825,8.92499999 C18.825,9.07499999 18.825,9.22499999 18.825,9.37499999 C18.825,13.875 15.45,18.975 9.22499999,18.975 C7.34999998,18.975 5.54999997,18.45 4.04999997,17.475 C4.34999997,17.475 4.57499997,17.55 4.87499997,17.55 C6.44999998,17.55 7.94999998,17.025 9.07499999,16.125 C7.57499998,16.125 6.37499998,15.15 5.92499997,13.8 C6.14999998,13.875 6.37499998,13.875 6.52499998,13.875 C6.82499998,13.875 7.12499998,13.8 7.42499998,13.725 C5.84999997,13.425 4.72499997,12.075 4.72499997,10.425 C4.72499997,10.425 4.72499997,10.425 4.72499997,10.35 C5.17499997,10.575 5.69999997,10.725 6.22499998,10.8 C5.32499997,10.2 4.72499997,9.14999999 4.72499997,7.94999998 C4.72499997,7.34999998 4.87499997,6.74999998 5.17499997,6.22499998 C6.82499998,8.24999998 9.29999999,9.59999999 12.15,9.74999999 C12.075,9.52499999 12.075,9.22499999 12.075,8.99999999 C12.075,7.12499997 13.575,5.62499997 15.45,5.62499997 C16.425,5.62499997 17.325,5.99999998 17.925,6.67499998 C18.675,6.52499998 19.425,6.22499998 20.1,5.84999997 C19.875,6.67499998 19.35,7.27499998 18.6,7.72499998 C19.275,7.64999998 19.95,7.42499998 20.55,7.19999998 C20.1,7.87499998 19.5,8.47499999 18.825,8.92499999 Z" id="path-1"></path>
    </defs>
    <g id="VW/Icons/tw" stroke="none" stroke-width="1" fill="none" fill-rule="evenodd">
        <mask id="mask-2" fill="white">
            <use xlink:href="#path-1"></use>
        </mask>
        <g fill-rule="nonzero"></g>
        <g id="Group" mask="url(#mask-2)" fill="#000000">
            <g id="🎨-color">
                <rect id="Swatch" x="0" y="0" width="24" height="24"></rect>
            </g>
        </g>
    </g>
</svg>

<svg
    xmlns="http://www.w3.org/2000/svg"    
    x="0px"
    y="0px"
    viewBox="0 0 24 24"
    aria-labelledby="chevron down"
    role="presentation"
  >
    <title  lang="en">chevron down</title>

    <g fill="currentColor">
	<path id="path-1_00000149367790310571731860000007506734657425343390_" d="M12,0C5.4,0,0,5.4,0,12s5.4,12,12,12s12-5.4,12-12
		S18.6,0,12,0z M18.8,8.9c0,0.1,0,0.3,0,0.4c0,4.5-3.4,9.6-9.6,9.6c-1.9,0-3.7-0.5-5.2-1.5c0.3,0,0.5,0.1,0.8,0.1
		c1.6,0,3.1-0.5,4.2-1.4c-1.5,0-2.7-1-3.1-2.3c0.2,0.1,0.4,0.1,0.6,0.1c0.3,0,0.6-0.1,0.9-0.1c-1.6-0.3-2.7-1.7-2.7-3.3
		c0,0,0,0,0-0.1c0.5,0.2,1,0.4,1.5,0.4c-0.9-0.6-1.5-1.7-1.5-2.9c0-0.6,0.2-1.2,0.5-1.7c1.6,2,4.1,3.4,7,3.5
		c-0.1-0.2-0.1-0.5-0.1-0.8c0-1.9,1.5-3.4,3.4-3.4c1,0,1.9,0.4,2.5,1.1c0.8-0.2,1.5-0.5,2.2-0.8c-0.2,0.8-0.8,1.4-1.5,1.9
		c0.7-0.1,1.4-0.3,1.9-0.5C20.1,7.9,19.5,8.5,18.8,8.9z"/>
</g>
</svg>
